img/success.svg

<svg width="185" height="185" viewBox="0 0 185 185" fill="none" xmlns="http://www.w3.org/2000/svg">
<g clip-path="url(#clip0_1512_2055)">
<path d="M92.5 185C143.586 185 185 143.586 185 92.5C185 41.4137 143.586 0 92.5 0C41.4137 0 0 41.4137 0 92.5C0 143.586 41.4137 185 92.5 185Z" fill="#6C5FFF"/>
<path d="M92.5078 42.3723C105.319 42.3723 118.13 47.2671 127.935 57.0644C132.595 61.7142 136.292 67.2374 138.815 73.3179C141.337 79.3983 142.636 85.9167 142.636 92.4996C142.636 99.0826 141.337 105.601 138.815 111.681C136.292 117.762 132.595 123.285 127.935 127.935C123.286 132.595 117.762 136.292 111.682 138.814C105.601 141.337 99.083 142.635 92.5 142.635C85.9171 142.635 79.3988 141.337 73.3183 138.814C67.2378 136.292 61.7146 132.595 57.0648 127.935C52.4049 123.285 48.7078 117.762 46.1852 111.681C43.6627 105.601 42.3643 99.0826 42.3643 92.4996C42.3643 85.9167 43.6627 79.3983 46.1852 73.3179C48.7078 67.2374 52.4049 61.7142 57.0648 57.0644C61.7131 52.401 67.2373 48.7022 73.3199 46.1808C79.4024 43.6595 85.9233 42.3652 92.5078 42.3723ZM115.324 77.0753C114.595 77.1451 113.9 77.4204 113.32 77.8692L85.154 98.9901L72.1038 85.9476C69.2748 83.003 63.7017 88.5684 66.654 91.3973L82.0707 106.814C82.739 107.446 83.6053 107.827 84.5228 107.893C85.4402 107.959 86.3523 107.706 87.1042 107.176L117.938 84.0513C120.528 82.1628 118.932 77.1292 115.725 77.083C115.594 77.0763 115.463 77.0763 115.332 77.083L115.324 77.0753Z" fill="white"/>
</g>
<defs>
<clipPath id="clip0_1512_2055">
<rect width="185" height="185" fill="white"/>
</clipPath>
</defs>
</svg>

<svg width="185" height="185" fill="none" xmlns="http://www.w3.org/2000/svg"><g clip-path="url(#clip0_1512_2055)"><path d="M92.5 185c51.086 0 92.5-41.414 92.5-92.5S143.586 0 92.5 0 0 41.414 0 92.5 41.414 185 92.5 185z" fill="#6C5FFF"/><path d="M92.508 42.372c12.811 0 25.622 4.895 35.427 14.692A50.067 50.067 0 01142.636 92.5a50.064 50.064 0 01-14.701 35.435 50.043 50.043 0 01-35.435 14.7 50.05 50.05 0 01-35.435-14.7 50.06 50.06 0 010-70.87 49.966 49.966 0 0135.443-14.693zm22.816 34.703a3.88 3.88 0 00-2.004.794L85.154 98.99l-13.05-13.042c-2.83-2.945-8.402 2.62-5.45 5.45l15.417 15.416a3.984 3.984 0 005.033.362l30.834-23.125c2.59-1.888.994-6.922-2.213-6.968a3.845 3.845 0 00-.393 0l-.008-.008z" fill="#fff"/></g><defs><clipPath id="clip0_1512_2055"><path fill="#fff" d="M0 0h185v185H0z"/></clipPath></defs></svg>
